icons/numix/24x24/status/krb-no-valid-ticket.svg

<?xml version="1.0" encoding="UTF-8" standalone="no"?>
<svg
   xmlns:dc="http://purl.org/dc/elements/1.1/"
   xmlns:cc="http://creativecommons.org/ns#"
   xmlns:rdf="http://www.w3.org/1999/02/22-rdf-syntax-ns#"
   xmlns:svg="http://www.w3.org/2000/svg"
   xmlns="http://www.w3.org/2000/svg"
   xmlns:sodipodi="http://sodipodi.sourceforge.net/DTD/sodipodi-0.dtd"
   xmlns:inkscape="http://www.inkscape.org/namespaces/inkscape"
   width="15.273"
   height="24"
   viewBox="0 0 15.272999 24"
   id="svg2989"
   version="1.1"
   inkscape:version="0.91 r"
   sodipodi:docname="krb-no-valid-ticket.svg">
  <metadata
     id="metadata3017">
    <rdf:RDF>
      <cc:Work
         rdf:about="">
        <dc:format>image/svg+xml</dc:format>
        <dc:type
           rdf:resource="http://purl.org/dc/dcmitype/StillImage" />
        <dc:title></dc:title>
      </cc:Work>
    </rdf:RDF>
  </metadata>
  <sodipodi:namedview
     pagecolor="#ffffff"
     bordercolor="#666666"
     borderopacity="1"
     objecttolerance="10"
     gridtolerance="10"
     guidetolerance="10"
     inkscape:pageopacity="0"
     inkscape:pageshadow="2"
     inkscape:window-width="1366"
     inkscape:window-height="747"
     id="namedview3015"
     showgrid="false"
     inkscape:zoom="13.906433"
     inkscape:cx="1.4246747"
     inkscape:cy="6.1095423"
     inkscape:window-x="0"
     inkscape:window-y="21"
     inkscape:window-maximized="1"
     inkscape:current-layer="svg2989" />
  <defs
     id="defs2991">
    <clipPath
       id="clip1">
      <rect
         width="24"
         height="24"
         id="rect2994"
         x="0"
         y="0" />
    </clipPath>
    <filter
       width="1"
       x="0"
       y="0"
       height="1"
       filterUnits="objectBoundingBox"
       id="alpha">
      <feColorMatrix
         values="0 0 0 0 1 0 0 0 0 1 0 0 0 0 1 0 0 0 1 0"
         in="SourceGraphic"
         type="matrix"
         id="feColorMatrix2997" />
    </filter>
    <g
       id="surface6"
       clip-path="url(#clip1)">
      <path
         style="fill:#000000;fill-opacity:0.30199998"
         d="M 12.042969,3.273438 C 8.0625,3.25 4.316406,5.164062 3.578125,7.566406 2.84375,9.96875 4.835938,12.222656 8.5625,13.089844 l 0,6.546875 c 0,2.179687 1.9375,3.289062 3.429688,3.273437 1.488281,-0.01953 3.425781,-1.09375 3.425781,-3.273437 l 3.429687,-1.089844 -5.144531,-1.09375 5.144531,-2.179687 -3.429687,-1.089844 0,-1.09375 c 3.75,-0.824219 5.703125,-3.007813 5.039062,-5.417969 C 19.789062,5.261719 16.027344,3.292969 12.042969,3.273438 Z m 0,3.238281 c 1.003906,0 1.769531,0.488281 1.769531,1.125 0,0.636719 -0.765625,1.125 -1.769531,1.125 -1,0 -1.765625,-0.488281 -1.765625,-1.125 0,-0.636719 0.765625,-1.125 1.765625,-1.125 z m 0,1.089843 c 0.03906,0 -0.05469,0.058594 -0.05469,0.035157 0,-0.023438 0.09375,0.035156 0.05469,0.035156 -0.03516,0 0.05469,-0.058594 0.05469,-0.035156 0,0.023437 -0.08984,-0.035157 -0.05469,-0.035157 z"
         id="path3000"
         inkscape:connector-curvature="0" />
      <path
         style="fill:#dcdcdc"
         d="M 12.042969,2.183594 C 8.0625,2.160156 4.316406,4.074219 3.578125,6.476562 2.84375,8.878906 4.835938,11.132812 8.5625,12 l 0,6.546875 c 0,2.179687 1.9375,3.289063 3.429688,3.269531 1.488281,-0.01563 3.425781,-1.089844 3.425781,-3.269531 l 3.429687,-1.09375 -5.144531,-1.089844 5.144531,-2.179687 -3.429687,-1.09375 0,-1.089844 c 3.75,-0.828125 5.703125,-3.011719 5.039062,-5.421875 -0.667969,-2.410156 -4.429687,-4.375 -8.414062,-4.394531 z m 0,3.238281 c 1.003906,0 1.769531,0.484375 1.769531,1.125 0,0.636719 -0.765625,1.125 -1.769531,1.125 -1,0 -1.765625,-0.488281 -1.765625,-1.125 0,-0.640625 0.765625,-1.125 1.765625,-1.125 z m 0,1.089844 c 0.03906,0 -0.05078,0.058593 -0.05078,0.035156 0,-0.023437 0.08984,0.03125 0.05078,0.03125 -0.03516,0 0.05469,-0.054687 0.05469,-0.03125 0,0.023437 -0.08984,-0.035156 -0.05469,-0.035156 z"
         id="path3002"
         inkscape:connector-curvature="0" />
    </g>
    <mask
       id="mask0">
      <g
         style="filter:url(#alpha)"
         id="g3005">
        <rect
           width="24"
           x="0"
           y="0"
           height="24"
           style="fill:#000000;fill-opacity:0.30199998"
           id="rect3007" />
      </g>
    </mask>
  </defs>
  <path
     inkscape:connector-curvature="0"
     id="path2999"
     d="m 7.6583576,2.9998026 c -2.3228,-0.0197 -4.5084002,1.7350001 -4.9372002,3.9374997 -0.4289,2.2025 0.7339,4.2674997 2.9062002,5.0624997 l 0,6 c 0,2 1.1301,3.0165 2,3 0.86992,-0.01652 2,-1 2,-3 l 2.0000004,-1 -3.0000004,-1 3.0000004,-2 -2.0000004,-1 0,-1 C 11.813358,11.241802 12.953358,9.2405023 12.565358,7.0310023 12.176358,4.8216027 9.9813575,3.0195026 7.6583576,2.9998026 Z m 0,2.9687997 c 0.58475,0 1.0312,0.4465 1.0312,1.0312 0,0.58475 -0.4465,1.0312 -1.0312,1.0312 -0.584,0 -1.031,-0.4465 -1.031,-1.0312 0,-0.5847 0.447,-1.0312 1.031,-1.0312 z m 0,1 c 0.022,0 -0.031,0.053 -0.031,0.0312 0,-0.02182 0.05307,0.03125 0.03125,0.03125 -0.02182,0 0.03125,-0.05307 0.03125,-0.03125 0,0.02182 -0.05307,-0.03125 -0.03125,-0.03125 z"
     style="color:#000000;opacity:0.4;fill:#ececec;fill-opacity:1" />
  <path
     inkscape:connector-curvature="0"
     style="fill:#ef555c;fill-opacity:1;fill-rule:evenodd"
     d="m 12.626958,10.999802 c -0.554,0 -1,0.446 -1,1 l 0,5 c 0,0.554 0.446,1 1,1 0.554,0 1,-0.446 1,-1 l 0,-5 c 0,-0.554 -0.446,-1 -1,-1 z m -0.5,8 c -0.277,0 -0.5,0.223 -0.5,0.5 l 0,0.5 0,0.5 c 0,0.277 0.223,0.5 0.5,0.5 l 0.5,0 0.5,0 c 0.277,0 0.5,-0.223 0.5,-0.5 l 0,-0.5 0,-0.5 c 0,-0.277 -0.223,-0.5 -0.5,-0.5 l -0.5,0 -0.5,0 z"
     id="path3001" />
</svg>

<svg width="24" xmlns="http://www.w3.org/2000/svg" height="24" viewBox="0 0 24 24" xmlns:xlink="http://www.w3.org/1999/xlink">
<defs>
<clipPath id="clip1">
<rect width="24" height="24"/>
</clipPath>
<filter width="100%" x="0" y="0" height="100%" filterUnits="objectBoundingBox" id="alpha">
<feColorMatrix values="0 0 0 0 1 0 0 0 0 1 0 0 0 0 1 0 0 0 1 0" in="SourceGraphic" type="matrix"/>
</filter>
<g style="clip-path:url(#clip1)" id="surface6">
<path style="fill:#000;fill-opacity:.302" d="M 12.042969 3.273438 C 8.0625 3.25 4.316406 5.164062 3.578125 7.566406 C 2.84375 9.96875 4.835938 12.222656 8.5625 13.089844 L 8.5625 19.636719 C 8.5625 21.816406 10.5 22.925781 11.992188 22.910156 C 13.480469 22.890625 15.417969 21.816406 15.417969 19.636719 L 18.847656 18.546875 L 13.703125 17.453125 L 18.847656 15.273438 L 15.417969 14.183594 L 15.417969 13.089844 C 19.167969 12.265625 21.121094 10.082031 20.457031 7.671875 C 19.789062 5.261719 16.027344 3.292969 12.042969 3.273438 Z M 12.042969 6.511719 C 13.046875 6.511719 13.8125 7 13.8125 7.636719 C 13.8125 8.273438 13.046875 8.761719 12.042969 8.761719 C 11.042969 8.761719 10.277344 8.273438 10.277344 7.636719 C 10.277344 7 11.042969 6.511719 12.042969 6.511719 Z M 12.042969 7.601562 C 12.082031 7.601562 11.988281 7.660156 11.988281 7.636719 C 11.988281 7.613281 12.082031 7.671875 12.042969 7.671875 C 12.007812 7.671875 12.097656 7.613281 12.097656 7.636719 C 12.097656 7.660156 12.007812 7.601562 12.042969 7.601562 Z "/>
<path style="fill:#dcdcdc" d="M 12.042969 2.183594 C 8.0625 2.160156 4.316406 4.074219 3.578125 6.476562 C 2.84375 8.878906 4.835938 11.132812 8.5625 12 L 8.5625 18.546875 C 8.5625 20.726562 10.5 21.835938 11.992188 21.816406 C 13.480469 21.800781 15.417969 20.726562 15.417969 18.546875 L 18.847656 17.453125 L 13.703125 16.363281 L 18.847656 14.183594 L 15.417969 13.089844 L 15.417969 12 C 19.167969 11.171875 21.121094 8.988281 20.457031 6.578125 C 19.789062 4.167969 16.027344 2.203125 12.042969 2.183594 Z M 12.042969 5.421875 C 13.046875 5.421875 13.8125 5.90625 13.8125 6.546875 C 13.8125 7.183594 13.046875 7.671875 12.042969 7.671875 C 11.042969 7.671875 10.277344 7.183594 10.277344 6.546875 C 10.277344 5.90625 11.042969 5.421875 12.042969 5.421875 Z M 12.042969 6.511719 C 12.082031 6.511719 11.992188 6.570312 11.992188 6.546875 C 11.992188 6.523438 12.082031 6.578125 12.042969 6.578125 C 12.007812 6.578125 12.097656 6.523438 12.097656 6.546875 C 12.097656 6.570312 12.007812 6.511719 12.042969 6.511719 Z "/>
</g>
<mask id="mask0">
<g style="filter:url(#alpha)">
<rect width="24" x="0" y="0" height="24" style="fill:#000;fill-opacity:.302"/>
</g>
</mask>
</defs>
<path style="fill:#000;fill-rule:evenodd;fill-opacity:.302" d="M 20.5625 12 C 19.613281 12 18.847656 12.488281 18.847656 13.089844 L 18.847656 18.546875 C 18.847656 19.148438 19.613281 19.636719 20.5625 19.636719 C 21.511719 19.636719 22.277344 19.148438 22.277344 18.546875 L 22.277344 13.089844 C 22.277344 12.488281 21.511719 12 20.5625 12 Z M 19.703125 20.726562 C 19.230469 20.726562 18.847656 20.96875 18.847656 21.273438 L 18.847656 22.363281 C 18.847656 22.664062 19.230469 22.910156 19.703125 22.910156 L 21.417969 22.910156 C 21.894531 22.910156 22.277344 22.664062 22.277344 22.363281 L 22.277344 21.273438 C 22.277344 20.96875 21.894531 20.726562 21.417969 20.726562 Z "/>
<use style="mask:url(#mask0)" xlink:href="#surface6"/>
<path style="fill:#de372c;fill-rule:evenodd" d="M 20.5625 10.910156 C 19.613281 10.910156 18.847656 11.394531 18.847656 12 L 18.847656 17.453125 C 18.847656 18.058594 19.613281 18.546875 20.5625 18.546875 C 21.511719 18.546875 22.277344 18.058594 22.277344 17.453125 L 22.277344 12 C 22.277344 11.394531 21.511719 10.910156 20.5625 10.910156 Z M 19.703125 19.636719 C 19.230469 19.636719 18.847656 19.878906 18.847656 20.183594 L 18.847656 21.273438 C 18.847656 21.574219 19.230469 21.816406 19.703125 21.816406 L 21.417969 21.816406 C 21.894531 21.816406 22.277344 21.574219 22.277344 21.273438 L 22.277344 20.183594 C 22.277344 19.878906 21.894531 19.636719 21.417969 19.636719 Z "/>
</svg>
